/* XPM */
static const char *proxchunk[] = {
/* columns rows colors chars-per-pixel */
"48 48 158 2 ",
"   c black",
".  c #0C0F14",
"X  c #0E1116",
"o  c #0F1318",
"O  c #0F181D",
"+  c #101317",
"@  c #10141A",
"#  c #12191D",
"$  c #11211D",
"%  c #0F1B23",
"&  c None",
"*  c #122524",
"=  c #112824",
"-  c #13252B",
";  c #18272E",
":  c #18282F",
">  c #143226",
",  c #13372A",
"<  c #16382B",
"1  c #18382A",
"2  c #112630",
"3  c #112C37",
"4  c #192930",
"5  c #122E3B",
"6  c #133A33",
"7  c #143B3B",
"8  c #154F35",
"9  c #164F3B",
"0  c #165635",
"q  c #16503B",
"w  c #175F38",
"e  c #17653B",
"r  c #176B3E",
"t  c #186A3F",
"y  c #143C44",
"u  c #143C4A",
"i  c #153F50",
"p  c #165143",
"a  c #16524B",
"s  c #165253",
"d  c #17535C",
"f  c #186A45",
"g  c #186B4C",
"h  c #197240",
"j  c #197A43",
"k  c #186C53",
"l  c #196D5B",
"z  c #175462",
"x  c #185466",
"c  c #1A6E65",
"v  c #1A6F6D",
"b  c #1A6F71",
"n  c #1B7075",
"m  c #1B717C",
"M  c #198147",
"N  c #1A8649",
"B  c #1A8C4C",
"V  c #1C9E5A",
"C  c #1DA45C",
"Z  c #1DA95B",
"A  c #1C9E62",
"S  c #1D9F69",
"D  c #2F9F67",
"F  c #2D9E6E",
"G  c #2D9B76",
"H  c #2B967C",
"J  c #2B997E",
"K  c #1DA664",
"L  c #1EAA62",
"P  c #1EA26B",
"I  c #1EAA6C",
"U  c #1EB562",
"Y  c #1FB66B",
"T  c #1DA171",
"R  c #1EAA74",
"E  c #1EA27C",
"W  c #1FAA7A",
"Q  c #2FA268",
"!  c #20B775",
"~  c #20B87B",
"^  c #1A6681",
"/  c #1A6984",
"(  c #1C6D8B",
")  c #1B7184",
"_  c #1C728B",
"`  c #298F8B",
"'  c #2A9485",
"]  c #29938D",
"[  c #288D92",
"{  c #268C9B",
"}  c #289195",
"|  c #1FA386",
" . c #1FAC84",
".. c #1FA58E",
"X. c #20AD8C",
"o. c #20B981",
"O. c #21BA8B",
"+. c #20A696",
"@. c #20AD92",
"#. c #20A69D",
"$. c #21AC9B",
"%. c #22BB94",
"&. c #21B09F",
"*. c #22BC9A",
"=. c #1E83A7",
"-. c #2486A3",
";. c #2487AB",
":. c #268BA3",
">. c #208FB6",
",. c #21A6A5",
"<. c #21ADA5",
"1. c #21A7AC",
"2. c #21ADAC",
"3. c #21B0A3",
"4. c #23BDA4",
"5. c #22B2AB",
"6. c #23BEAD",
"7. c #33BEA8",
"8. c #21A9B4",
"9. c #22AABB",
"0. c #22B2B4",
"q. c #23BFB4",
"w. c #22B2BB",
"e. c #31BAB1",
"r. c #30B7BB",
"t. c #39CD81",
"y. c #37CA8A",
"u. c #36C694",
"i. c #34C29E",
"p. c #24C0BA",
"a. c #2297C0",
"s. c #229CC5",
"d. c #22ABC3",
"f. c #23ACC9",
"g. c #2DAFCE",
"h. c #23B4C3",
"j. c #2EB3C5",
"k. c #24B5CC",
"l. c #24ACD2",
"z. c #24ACD9",
"x. c #24B7D4",
"c. c #24B5D4",
"v. c #25B7D9",
"b. c #25B7DD",
"n. c #24B4DD",
"m. c #25B6E4",
"M. c #25B8E2",
"N. c #26B8E7",
"B. c #24C0C0",
"V. c #25C1C6",
"C. c #25C2CD",
"Z. c #25C3D3",
"A. c #26C3D9",
"S. c #26C4E0",
"D. c #26C5E6",
"F. c #27C6EC",
"G. c #27C6F2",
"H. c #28C7F9",
/* pixels */
"                                                                                                ",
"                                                                                                ",
"            @ # & ; 4 4 4 4 4 4 4 4 4 4 4 4 4 4 4 4 4 4 4 4 4 4 ; ; ; ; ; ; - & @ o             ",
"          # - 4 * # # @ @ @ @ @ @ @ @ @ @ @ @ @ @ @ @ @ + + + + o o o o o o # & 4 - +           ",
"        # 4 & @ @ @ @ @ @ @ @ @ @ @ @ @ @ @ @ @ @ @ @ + + + + o o o o o o o o o o & 4 @         ",
"      # 4 & @ @ @ @ @ @ @ @ @ @ @ @ @ @ @ @ @ @ @ @ + + + + o o o o o o o o o o o o # 4 o       ",
"    @ - & @ @ @ @ @ @ @ @ @ @ @ @ @ @ @ @ @ @ @ @ + + + + o o o o o o o o o o o o o o & - o     ",
"    # 4 @ @ @ @ @ @ @ @ @ @ @ @ @ @ @ @ @ @ @ @ + + + + o o o o o o o o o o o o o o o o 4 o     ",
"    & * @ @ @ @ @ @ @ @ @ @ @ @ @ @ @ @ @ @ @ + + + + o o o o o o o o o o o o o o o o o & &     ",
"    ; # @ @ @ @ @ @ @ @ @ @ @ @ @ @ @ @ @ @ + + + + o o o o o o o o o o o o o o o o o o @ -     ",
"    4 # @ @ @ @ 0 V C K P P T E E | | ..+.+.#.,.1.2.8.9.9.d.f.l.l.l.i o o o o o o o o o o ;     ",
"  # 4 @ @ @ @ @ B U Y Y ! ~ o.O.O.%.*.4.4.6.q.p.B.V.C.Z.A.S.D.F.G.H.( o o o o o o o o o o 4 o   ",
"  # 4 @ @ @ @ @ N U Y Y ! ~ o.O.O.%.*.4.4.6.q.p.B.V.C.Z.A.S.D.F.G.H.^ o o o o o o o o o o 4 o   ",
"  # 4 @ @ @ @ @ > t f f g g k k l l l c c c v v b n n m m ) ) _ _ ^ & o o o o o o o o o o 4 o   ",
"  # 4 @ @ @ @ @ @ @ @ @ @ @ @ @ @ + + + + o o o o o o o o o o o o o o o o o o o o o o o o 4 o   ",
"  @ 4 @ @ @ @ @ w Z L L I I R W W  . .X.@.@.$.&.3.5.5.0.0.w.h.h.k.k.x.v.n.m.m./ o o o o o 4 o   ",
"  @ 4 @ @ @ @ @ M Z L L I I R W W  . .X.@.@.$.&.3.5.5.0.0.w.h.h.k.k.x.v.n.M.N.>.o o o o o ; o   ",
"  @ 4 @ @ @ @ @ j Z L L I I R W W  . .X.@.@.$.&.3.5.5.0.0.w.h.h.k.k.x.v.n.M.N.=.o o o o o ; o   ",
"  @ 4 @ @ @ @ @ = 8 8 q q 9 q q p p p p a a a a s s s s s d d d d z z z x x x - o o o o o ; o   ",
"  @ 4 @ @ @ @ @ @ = = * * * * * - - - - - - - - - - # o o o o o o o o o o o o o o o o o o ; o   ",
"  @ 4 @ @ @ @ @ e V A S P E E | ..+.#.,.1.8.9.d.f.l.>.o o o o o o o o o o o o o o o o o . ; o   ",
"  @ 4 @ @ @ @ @ j V A S T E E | ..+.#.,.1.8.9.d.f.l.z.o o o o o o o o o o o o o o o o . . ; o   ",
"  @ 4 @ @ @ @ @ r V A S T E E | ..+.#.,.1.8.9.d.f.l.s.o o o o o o o o o o o o o o o . . . ; o   ",
"  @ 4 @ @ @ @ @ # , , < 6 6 6 6 7 7 7 7 7 y y y y u - o o o o o o o o o o o o o o . . . o ; o   ",
"  @ 4 @ @ @ @ + @ , , , , 6 6 6 6 6 7 7 7 7 7 y y y y y u u u 3 o o o o o o o o . . . o o ; X   ",
"  @ 4 @ @ @ + + h C K K I R W  . .X.@.$.$.<.2.0.w.w.h.k.c.c.n.m.5 o o o o o o . . o . o o ; o   ",
"  @ 4 @ @ + + + M C K K I R W  . .X.@.$.$.<.2.0.w.w.h.k.c.c.n.m.u o o o o o . . o . o o X ; .   ",
"  @ 4 @ + + + + r C K K I R W  . .X.@.$.$.<.2.0.w.w.h.k.c.c.n.n.2 o o o o . . . . . o o o ; .   ",
"  @ 4 + + + + o o = = = = = * * * * * - - - - - - - - - - - 2 % o o o o . . . . . . o o o ; o   ",
"  @ 4 + + + o o o o o o o * 1 1 1 1 1 1 1 1 1 1 1 1 1 1 1 1 1 1 1 1 $ . . . . . . . o o o ; o   ",
"  @ 4 + + o o o o o o o o # D t.t.t.t.t.t.t.t.t.t.t.t.t.t.t.t.t.t.Q O o . . . . o o o o o ; o   ",
"  @ 4 + o o o o o o o o o o # F y.y.y.y.y.y.y.y.y.y.y.y.y.y.y.y.F O o o o o . X o o o o o ; o   ",
"  @ 4 o o o o o o o o o o o o # G u.u.u.u.u.u.u.u.u.u.u.u.u.u.G O o o o o o o X X X X X . ; o   ",
"  @ 4 o o o o o o o o o o o o o O H i.i.i.i.i.i.i.i.i.i.i.i.J O o o o o o o X X . . X . . ; o   ",
"  @ 4 o o o o o o o o o o o o o o O ' 7.7.7.7.7.7.7.7.7.7.' O . o o o o o o . . . . . . . ; o   ",
"  @ 4 o o o o o o o o o o o o o o o O ` e.e.e.e.e.e.e.e.] O . . . o o o o X . . . . . . . ; o   ",
"  @ 4 o o o o o o o o o o o o o o o o O [ r.r.r.r.r.r.} O o . . . . o o o o . . . . . . . ; X   ",
"    ; o o o o o o o o o o o o o o o o o O { j.j.j.j.{ O o o o o . . o . o o . . . . . . o ;     ",
"    - # o o o o o o o o o o o o o o o o o O { g.g.:.O o o o . o . . . . o X . . . . . . o -     ",
"    & & o o o o o o o o o o o o o o o o o o O -.;.O o o o o . . . . . . o . . . . . . . & &     ",
"    @ 4 o o o o o o o o o o o o o o o o o o o O O o o o . . X o o o o o . . . . . . . . ; o     ",
"    o - & o o o o o o o o o o o o o o o o o o . o o o o . . X o o o o . . . . . . . . & * X     ",
"      + 4 # o o o o o o o o o o o o o o o o . . o o . . . . o o o o . . . . . . . . o ; o       ",
"        @ 4 & o o o o o o o o o o o o o o . . . o o . . . . o o o . . . . . . . . & ; o         ",
"          o - 4 & @ o o o o o o o o o o o o o o o . . . o o o o . . . . . o o & ; & o           ",
"            o o & - ; ; ; ; ; ; ; ; ; ; ; ; ; ; ; ; ; ; ; ; ; ; ; ; ; ; ; ; - & o .             ",
"                    o o o o o o o o o o o o o o o o o X X X . . . . . . . o                     ",
"                                                                                                "
};
